tests/fixtures/luts/cool_shift.cube
TITLE "Cool Shift"
LUT_3D_SIZE 2
DOMAIN_MIN 0.0 0.0 0.0
DOMAIN_MAX 1.0 1.0 1.0
0.0 0.02 0.08
0.95 0.02 0.08
0.0 1.0 0.08
0.95 1.0 0.08
0.0 0.02 1.0
0.95 0.02 1.0
0.0 1.0 1.0
0.95 1.0 1.0
