tests/fixtures/luts/warm_shift.cube
TITLE "Warm Shift"
LUT_3D_SIZE 2
DOMAIN_MIN 0.0 0.0 0.0
DOMAIN_MAX 1.0 1.0 1.0
0.05 0.02 0.0
1.0 0.02 0.0
0.05 1.0 0.0
1.0 1.0 0.0
0.05 0.02 0.95
1.0 0.02 0.95
0.05 1.0 0.95
1.0 1.0 0.95
